X:50
T:Levan polkka % titre
R:Polka % rythme
C:Trad. / Eino Kettunen % compositeur
O:Suomi % pays d'origine
O:Finland % pays d'origine
Z:Eric Forgeot - http://anamnese.online.fr % celui qui l'a transcrit
D:Loituma : Things of Beauty % discographie éventuelle
N:http://www.tvfolk.net/artistVideo.php?ID=420 % note additionnelle, ici vous pouvez voir le groupe en live
M:2/4% type de mesure (ici c'est en 2 temps)
L:1/8% note de base (ici c'est la croche)
Q:1/4=115% tempo
K:G % tonalité
|:Be e>f | ge e>g | fd d>f | ge e2 |
Be e>f | ge e>g | ba gf | ge e>g |
bb/2b/2 ag| fd df | aa gf | ge e>g |
bb/2b/2 ag| fd df | aa/2a/2 gf| ge e2 :|
W:Nuapurista kuulu se polokan tahti % et les paroles... pour ceux qui les comprennent :)
W:jalakani pohjii kutkutti.
W:Ievan äiti se tyttöösä vahti
W:vaan kyllähän Ieva sen jutkutti,
W:sillä ei meitä silloin kiellot haittaa
W:kun myö tanssimme laiasta laitaan.
W:Salivili hipput tupput täppyt
W:äppyt tipput hilijalleen.
W:
W:/.../

